X:14
I:linebreak $
T:Monsieur's Almain
C:William Byrd, setting from Morley's Consort Lessons, 1599 & 1611
M:C
L:1/8
K:G major
"G"G4 G2"C"G2 | "D"A4 A2"Am"A2 | "G"Bcd2 "Am"c4 | "G"B4 B2B2 | "G"Bcd2 "Am"c2"G"B2 | "D"A4 A2"G"D2 | 
"C"E=F"G"G4F2 | "G"G4 G4 ::"G"G4 "D"A4 | "G"B4 B2B2 | "Am"A4 "E"^G4 | "A"A4 A2Bc | 
"G"d3c B2"C"cB | "D"A3G FE"G"D2 | "C"E=F"D D5"G4F2 | "G"G4 G4 :| 

